X: 1
T:Pschater Flugsummi - schottisch/schottische/scottish
B:Grossrussbacher Auslese 1987, R.Zeilinger und K.Schmid, sterreichisches-, Niedersterreichisches-  und Wiener Volksliedwerk, Wien 1987
Z:abc transcription Simon Wascher
N:please mail errors to: simon.wascher@chello.at
M:2/4
L:1/16
K:D
FG|A2^f2 G2e2|F2d2 dAFA|E2c2 cAEA|F2d2 dAFG|
A2f2 G2e2|F2d2 dAFA|E2c2 cABc|d2d2d2:|
|:A2|A2FA d4|d2Ad f4|f2ef g2c2|d3f edcB|
A2FA d4|d2Ad f4|f2ef g2c2|1d2f2d2:|2d2d2d2||
K:G
GA|B2B2 BGDG|c2c2 B4|f2d2 f2d2|B3g fedc|
B2B2 BGDG|c2c2 B4|f2d2 f2d2|B2B2B2:|
